souls/img/no-gluten.svg

<svg width="241" height="241" viewBox="0 0 241 241" fill="none" xmlns="http://www.w3.org/2000/svg">
<g clip-path="url(#clip0_0_588)">
<path d="M120.5 241C187.05 241 241 187.05 241 120.5C241 53.9497 187.05 0 120.5 0C53.9497 0 0 53.9497 0 120.5C0 187.05 53.9497 241 120.5 241Z" fill="black"/>
<path d="M122.622 22.5037C122.945 18.3526 124.909 15.9136 128.34 16.1805C130.802 16.3738 132.609 17.8281 132.498 21.0494L130.655 20.9115C130.617 18.9694 129.953 17.9754 128.275 17.8464C125.351 17.6164 124.771 20.4144 124.596 22.6878C124.392 25.3018 124.687 27.75 127.381 27.9617C128.58 28.0537 129.418 27.658 130.156 27.0689L130.377 24.1973L127.343 23.9671L127.464 22.3841L132.342 22.7614L131.797 29.7381L130.304 29.6276L130.415 28.201C129.953 28.8084 128.727 29.7289 126.818 29.5816C123.296 29.2963 122.355 25.9276 122.622 22.5037Z" fill="white"/>
<path d="M139.203 17.7725L141.075 18.1866L138.604 29.2591L145.105 30.7042L144.746 32.2964L136.372 30.4372L139.203 17.7725Z" fill="white"/>
<path d="M150.564 29.2778L153.542 21.4268L155.332 22.1079L152.353 29.9589C151.532 32.1127 151.911 33.1343 153.616 33.7786C155.322 34.4229 156.281 33.8983 157.102 31.7446L160.081 23.8935L161.87 24.5746L158.891 32.4256C157.702 35.5642 155.847 36.4202 153.027 35.3525C150.204 34.2848 149.374 32.4164 150.564 29.2778Z" fill="white"/>
<path d="M169.818 30.318L165.982 28.2011L166.774 26.7744L176.153 31.9563L175.36 33.383L171.487 31.2385L165.982 41.1696L164.304 40.2492L169.818 30.318Z" fill="white"/>
<path d="M180.874 35.1221L187.625 40.221L186.638 41.5281L181.419 37.5887L179.058 40.7089L183.595 44.142L182.608 45.4489L178.071 42.025L175.554 45.3477L180.773 49.2871L179.786 50.594L173.037 45.495L180.874 35.1221Z" fill="white"/>
<path d="M192.67 44.6392L194.477 46.4523L189.451 57.175L191.95 54.4047L197.197 49.1951L198.415 50.4193L189.193 59.5681L187.386 57.755L192.412 47.0323L189.913 49.8027L184.665 55.0122L183.448 53.788L192.67 44.6392Z" fill="white"/>
<path d="M205.727 69.5454L214.903 71.0088L211.159 79.495L201.983 78.0315L205.727 69.5454Z" fill="white"/>
<path d="M223.248 95.9697L224.05 99.679C224.733 102.827 223.903 105.22 221.183 105.809C218.463 106.398 216.719 104.585 216.037 101.409L215.641 99.5685L210.956 100.581L210.55 98.7125L223.248 95.9697ZM217.236 99.2279L217.641 101.096C218.158 103.48 219.329 104.189 220.768 103.885C222.188 103.581 222.98 102.44 222.465 100.066L222.059 98.1971L217.236 99.2279Z" fill="white"/>
<path d="M226.181 113.927L226.328 115.989L213.685 121.465L213.538 119.404L216.543 118.152L216.194 113.108L213.039 112.289L212.902 110.273L226.181 113.927ZM217.78 113.458L218.065 117.545L219.974 116.744L224.271 115.059L219.781 113.992L217.78 113.458Z" fill="white"/>
<path d="M226.54 125.957L226.401 127.862L215.068 127.071L214.598 133.707L212.966 133.596L213.566 125.064L226.54 125.957Z" fill="white"/>
<path d="M225.147 140.305L224.612 142.781L220.066 143.306L217.088 143.564L219.706 145L223.635 147.356L223.119 149.767L210.401 147.034L210.771 145.349L218.212 146.951L221.716 147.871L214.837 143.803L215.152 142.367L223.1 141.484L219.532 140.876L212.09 139.275L212.449 137.59L225.147 140.305Z" fill="white"/>
<path d="M210.282 165.682C213.989 167.698 215.483 170.394 213.804 173.468C212.135 176.524 209.157 176.708 205.506 174.72C201.798 172.704 200.323 170.017 202.001 166.952C203.67 163.896 206.657 163.713 210.282 165.682ZM206.4 172.944C208.326 173.992 211.01 175.135 212.375 172.631C213.74 170.127 211.324 168.498 209.396 167.449C207.497 166.418 204.814 165.267 203.44 167.781C202.075 170.283 204.491 171.913 206.4 172.944Z" fill="white"/>
<path d="M198.812 175.935L196.911 178.485L204.713 184.283L206.613 181.733L207.923 182.71L202.998 189.318L201.688 188.342L203.579 185.811L195.778 180.013L193.887 182.543L192.577 181.568L197.512 174.959L198.812 175.935Z" fill="white"/>
<path d="M198.46 194.564L197.114 195.916L189.045 187.928L184.352 192.649L183.189 191.499L189.23 185.424L198.46 194.564Z" fill="white"/>
<path d="M173.598 207.772L172.197 216.93L163.676 213.247L165.078 204.081L173.598 207.772Z" fill="white"/>
<path d="M145.925 216.276L144.1 216.681C143.685 215.246 142.532 214.647 140.669 215.061C138.963 215.438 137.986 216.367 138.271 217.647C138.493 218.632 139.25 218.935 140.485 219.092L143.426 219.451C145.077 219.653 146.571 220.334 146.986 222.176C147.484 224.422 145.797 226.051 143.297 226.603C140.734 227.174 138.677 226.336 138.079 223.731L139.876 223.326C140.366 225.102 141.721 225.249 142.984 224.974C144.625 224.606 145.335 223.676 145.105 222.636C144.911 221.78 144.211 221.375 143.095 221.246L140.154 220.887C137.95 220.62 136.806 219.957 136.418 218.227C135.837 215.641 137.682 214.057 140.319 213.468C143.196 212.825 145.363 213.736 145.925 216.276Z" fill="white"/>
<path d="M132.028 219.875L132.674 228.242L130.765 228.389L130.12 220.022C129.945 217.73 129.16 216.957 127.353 217.095C125.537 217.233 124.891 218.117 125.066 220.409L125.721 228.784L123.811 228.932L123.157 220.565C122.899 217.215 124.209 215.659 127.224 215.429C130.23 215.19 131.77 216.524 132.028 219.875Z" fill="white"/>
<path d="M118.63 222.544C118.362 226.704 116.435 229.162 113.005 228.941C110.542 228.785 108.717 227.358 108.781 224.136L110.626 224.256C110.69 226.198 111.363 227.183 113.042 227.293C115.965 227.477 116.509 224.679 116.656 222.406C116.822 219.792 116.49 217.343 113.798 217.178C112.599 217.105 111.769 217.51 111.04 218.107L110.856 220.98L113.89 221.173L113.788 222.756L108.91 222.453L109.353 215.476L110.847 215.567L110.755 216.994C111.206 216.377 112.424 215.438 114.333 215.559C117.864 215.761 118.851 219.121 118.63 222.544Z" fill="white"/>
<path d="M99.1257 226.888L97.097 226.464L95.2527 212.825L97.2815 213.248L97.6687 216.478L102.63 217.51L104.271 214.702L106.254 215.117L99.1257 226.888ZM101.865 218.955L97.844 218.117L98.1021 220.169L98.5632 224.753L100.813 220.731L101.865 218.955Z" fill="white"/>
<path d="M87.3955 223.943L84.2326 222.793C81.0881 221.651 79.6311 219.653 80.5163 217.233C81.2355 215.264 82.9416 214.462 84.7858 214.665L82.7571 208.443L85.0072 209.263L86.7593 215.043L88.3823 215.631L90.0329 211.094L91.8311 211.747L87.3955 223.943ZM87.8382 217.131L86.455 216.625C84.1588 215.788 82.9323 216.395 82.4251 217.786C81.9272 219.147 82.4713 220.417 84.7674 221.255L86.1506 221.761L87.8382 217.131Z" fill="white"/>
<path d="M64.932 206.943L56.0055 209.511L55.7841 200.242L64.7107 197.674L64.932 206.943Z" fill="white"/>
<path d="M37.8029 190.486L35.4883 187.476C33.5242 184.918 33.2475 182.404 35.4606 180.711C37.6739 179.018 40.0161 179.911 41.9987 182.487L43.1514 183.988L46.9507 181.07L48.1127 182.589L37.8029 190.486ZM41.8512 184.982L40.6892 183.463C39.2047 181.531 37.8398 181.384 36.6688 182.277C35.5161 183.16 35.2854 184.521 36.7794 186.454L37.9412 187.974L41.8512 184.982Z" fill="white"/>
<path d="M28.9779 178.199L27.3271 175.272C25.6858 172.363 25.8886 169.906 28.1387 168.636C29.9645 167.605 31.7904 168.12 33.0538 169.464L35.5804 163.427L36.7608 165.515L34.3171 171.038L35.1655 172.538L39.3889 170.172L40.3296 171.839L28.9779 178.199ZM33.7639 173.321L33.0445 172.041C31.8458 169.914 30.5178 169.575 29.2361 170.301C27.9726 171.01 27.5485 172.335 28.7473 174.462L29.4666 175.741L33.7639 173.321Z" fill="white"/>
<path d="M21.9874 164.788L18.9258 156.92L20.4474 156.331L22.8173 162.423L26.469 161.006L24.4126 155.704L25.9341 155.116L27.9906 160.417L31.882 158.907L29.5121 152.814L31.0337 152.225L34.0952 160.095L21.9874 164.788Z" fill="white"/>
<path d="M26.1564 149.133L25.7322 147.32C27.1708 146.897 27.7609 145.746 27.3276 143.887C26.931 142.184 25.9997 141.218 24.7178 141.512C23.7311 141.742 23.4269 142.497 23.2885 143.73L22.9473 146.667C22.7629 148.314 22.0897 149.814 20.2454 150.237C17.9953 150.753 16.3539 149.078 15.7822 146.593C15.192 144.034 16.0128 141.982 18.6131 141.355L19.0281 143.15C17.2484 143.656 17.1193 145.01 17.4051 146.262C17.7833 147.899 18.7239 148.599 19.7567 148.36C20.6143 148.167 21.0109 147.458 21.1306 146.344L21.4719 143.408C21.7208 141.199 22.3756 140.057 24.1093 139.662C26.6912 139.064 28.2958 140.896 28.9044 143.518C29.596 146.381 28.7015 148.544 26.1564 149.133Z" fill="white"/>
<path d="M14.0392 135.658L13.3291 127.246L14.9614 127.107L15.5146 133.624L19.4246 133.292L18.945 127.623L20.5773 127.486L21.0568 133.155L25.2157 132.804L24.6624 126.289L26.2947 126.15L27.0046 134.572L14.0392 135.658Z" fill="white"/>
<path d="M13.255 120.554L13.4395 117.204C13.6239 113.872 15.1178 111.902 17.6998 112.05C19.7931 112.169 21.0564 113.577 21.3884 115.391L26.7738 111.654L26.6354 114.047L21.6005 117.388L21.5083 119.109L26.3403 119.376L26.2297 121.281L13.255 120.554ZM19.9221 119.017L20.0052 117.544C20.1435 115.105 19.2029 114.111 17.7275 114.028C16.2797 113.946 15.21 114.829 15.0717 117.268L14.9886 118.741L19.9221 119.017Z" fill="white"/>
<path d="M14.2976 106.978L14.7034 104.971L22.053 104.078L26.4147 103.637L22.5877 101.602L16.1051 97.9301L16.5015 95.9697L28.3512 102.992L27.9362 105.063L14.2976 106.978Z" fill="white"/>
<path d="M19.0918 87.8702L19.7833 85.9189L33.5695 85.9467L32.878 87.8979L29.6228 87.8426L27.926 92.6103L30.4895 94.6168L29.8071 96.5221L19.0918 87.8702ZM26.6073 91.6531L27.9813 87.7966L25.9064 87.769L21.2957 87.5941L24.9842 90.3646L26.6073 91.6531Z" fill="white"/>
<path d="M26.516 74.6724L24.4781 78.5381L23.0303 77.7742L28.0192 68.3032L29.467 69.0672L27.4106 72.9789L37.4713 78.262L36.5768 79.9556L26.516 74.6724Z" fill="white"/>
<path d="M40.2928 70.1898L42.1556 67.6127L34.2712 61.9246L32.4085 64.5018L31.0806 63.5445L35.9219 56.8716L37.2497 57.8288L35.3962 60.3875L43.2806 66.0756L45.1341 63.5169L46.4529 64.474L41.6115 71.147L40.2928 70.1898Z" fill="white"/>
<path d="M39.3156 52.6563L40.7448 51.1837L47.4212 54.3867L51.3404 56.3655L49.2194 52.5919L45.7429 46.0111L47.1354 44.5752L53.3138 56.8717L51.8384 58.3997L39.3156 52.6563Z" fill="white"/>
<path d="M51.229 41.0406L57.9053 35.8496L58.9105 37.1381L53.7465 41.1511L56.1532 44.2345L60.6441 40.7461L61.6494 42.0348L57.1584 45.523L59.722 48.8089L64.8861 44.7959L65.8912 46.0845L59.2148 51.2755L51.229 41.0406Z" fill="white"/>
<path d="M67.4493 40.5344L69.0723 39.6047C69.893 40.8565 71.1656 41.0866 72.8347 40.1387C74.3562 39.2735 75.011 38.0953 74.3562 36.9632C73.849 36.0796 73.0467 36.0152 71.8203 36.2361L68.9064 36.7607C67.2741 37.0553 65.6419 36.8527 64.7013 35.2144C63.5578 33.2171 64.6921 31.1647 66.9145 29.8945C69.1922 28.5875 71.4054 28.7901 72.7516 31.091L71.1472 32.0023C70.1512 30.4467 68.8141 30.7136 67.6891 31.3488C66.2321 32.1864 65.8264 33.2908 66.352 34.2113C66.7853 34.966 67.5785 35.1501 68.685 34.9475L71.5991 34.4229C73.7846 34.0271 75.0755 34.3216 75.9515 35.8587C77.2703 38.1597 75.9792 40.2123 73.637 41.556C71.0826 43.0195 68.7403 42.7894 67.4493 40.5344Z" fill="white"/>
<path d="M90.974 25.0992L95.3357 15.665L103.368 22.2643L99.0152 31.6984L90.974 25.0992Z" fill="white"/>
</g>
<path d="M116.324 140.026L118.823 139.732V101.953C118.823 94.7499 120.44 91.5894 124.188 86.1504V86.0034H111.252V86.1504C115.148 91.6629 116.618 94.6764 116.691 102.1L116.838 120.181L89.643 86.0034H73.2525V86.1504C76.707 90.1194 78.2505 92.6184 78.618 97.7634V123.856C78.618 131.206 77.0745 134.219 73.179 139.658V139.805H86.409V139.658C82.44 134.219 80.823 131.059 80.823 123.856L80.529 95.3379L116.324 140.026ZM145.808 140.908C156.612 140.908 165.579 132.161 165.579 121.945C165.579 111.728 156.612 102.835 145.808 102.835C135.003 102.835 126.036 111.728 126.036 121.945C126.036 132.161 135.003 140.908 145.808 140.908ZM145.808 139.511C140.589 139.511 138.237 132.382 138.237 121.945C138.237 111.508 140.516 104.231 145.808 104.231C151.026 104.231 153.378 111.508 153.378 121.945C153.378 132.382 151.026 139.511 145.808 139.511Z" fill="white"/>
<defs>
<clipPath id="clip0_0_588">
<rect width="241" height="241" fill="white"/>
</clipPath>
</defs>
</svg>

<svg xmlns="http://www.w3.org/2000/svg" width="241" height="241" fill="none"><g clip-path="url(#a)"><path fill="#000" d="M120.5 241c66.55 0 120.5-53.95 120.5-120.5S187.05 0 120.5 0 0 53.95 0 120.5 53.95 241 120.5 241"/><path fill="#fff" d="M122.622 22.504c.323-4.151 2.287-6.59 5.718-6.324 2.462.194 4.269 1.648 4.158 4.87l-1.843-.139c-.038-1.942-.702-2.936-2.38-3.065-2.924-.23-3.504 2.568-3.679 4.842-.204 2.614.091 5.062 2.785 5.274 1.199.092 2.037-.304 2.775-.893l.221-2.872-3.034-.23.121-1.583 4.878.377-.545 6.977-1.493-.11.111-1.427c-.462.607-1.688 1.528-3.597 1.38-3.522-.285-4.463-3.653-4.196-7.077M139.203 17.773l1.872.414-2.471 11.072 6.501 1.445-.359 1.592-8.374-1.859zM150.564 29.278l2.978-7.851 1.79.68-2.979 7.852c-.821 2.154-.442 3.175 1.263 3.82 1.706.644 2.665.12 3.486-2.034l2.979-7.852 1.789.682-2.979 7.85c-1.189 3.14-3.044 3.995-5.864 2.928-2.823-1.068-3.653-2.937-2.463-6.075M169.818 30.318l-3.836-2.117.792-1.427 9.379 5.182-.793 1.427-3.873-2.145-5.505 9.932-1.678-.92zM180.874 35.122l6.751 5.099-.987 1.307-5.219-3.94-2.361 3.12 4.537 3.434-.987 1.307-4.537-3.424-2.517 3.323 5.219 3.94-.987 1.306-6.749-5.099zM192.67 44.64l1.807 1.812-5.026 10.723 2.499-2.77 5.247-5.21 1.218 1.224-9.222 9.15-1.807-1.814 5.026-10.723-2.499 2.77-5.248 5.21-1.217-1.224zM205.727 69.545l9.176 1.464-3.744 8.486-9.176-1.464zM223.248 95.97l.802 3.709c.683 3.148-.147 5.541-2.867 6.13s-4.464-1.224-5.146-4.4l-.396-1.84-4.685 1.012-.406-1.868zm-6.012 3.258.405 1.868c.517 2.384 1.688 3.093 3.127 2.789 1.42-.304 2.212-1.445 1.697-3.819l-.406-1.869zM226.181 113.927l.147 2.062-12.643 5.476-.147-2.061 3.005-1.252-.349-5.044-3.155-.819-.137-2.016zm-8.401-.469.285 4.087 1.909-.801 4.297-1.685-4.49-1.067zM226.54 125.957l-.139 1.905-11.333-.791-.47 6.636-1.632-.111.6-8.532zM225.147 140.305l-.535 2.476-4.546.525-2.978.258 2.618 1.436 3.929 2.356-.516 2.411-12.718-2.733.37-1.685 7.441 1.602 3.504.92-6.879-4.068.315-1.436 7.948-.883-3.568-.608-7.442-1.601.359-1.685zM210.282 165.682c3.707 2.016 5.201 4.712 3.522 7.786-1.669 3.056-4.647 3.24-8.298 1.252-3.708-2.016-5.183-4.703-3.505-7.768 1.669-3.056 4.656-3.239 8.281-1.27m-3.882 7.262c1.926 1.048 4.61 2.191 5.975-.313s-1.051-4.133-2.979-5.182c-1.899-1.031-4.582-2.182-5.956.332-1.365 2.502 1.051 4.132 2.96 5.163M198.812 175.935l-1.901 2.55 7.802 5.798 1.9-2.55 1.31.977-4.925 6.608-1.31-.976 1.891-2.531-7.801-5.798-1.891 2.53-1.31-.975 4.935-6.609zM198.46 194.564l-1.346 1.352-8.069-7.988-4.693 4.721-1.163-1.15 6.041-6.075zM173.598 207.772l-1.401 9.158-8.521-3.683 1.402-9.166zM145.925 216.276l-1.825.405c-.415-1.435-1.568-2.034-3.431-1.62-1.706.377-2.683 1.306-2.398 2.586.222.985.979 1.288 2.214 1.445l2.941.359c1.651.202 3.145.883 3.56 2.725.498 2.246-1.189 3.875-3.689 4.427-2.563.571-4.62-.267-5.218-2.872l1.797-.405c.49 1.776 1.845 1.923 3.108 1.648 1.641-.368 2.351-1.298 2.121-2.338-.194-.856-.894-1.261-2.01-1.39l-2.941-.359c-2.204-.267-3.348-.93-3.736-2.66-.581-2.586 1.264-4.17 3.901-4.759 2.877-.643 5.044.268 5.606 2.808M132.028 219.875l.646 8.367-1.909.147-.645-8.367c-.175-2.292-.96-3.065-2.767-2.927-1.816.138-2.462 1.022-2.287 3.314l.655 8.375-1.91.148-.654-8.367c-.258-3.35 1.052-4.906 4.067-5.136 3.006-.239 4.546 1.095 4.804 4.446M118.63 222.544c-.268 4.16-2.195 6.618-5.625 6.397-2.463-.156-4.288-1.583-4.224-4.805l1.845.12c.064 1.942.737 2.927 2.416 3.037 2.923.184 3.467-2.614 3.614-4.887.166-2.614-.166-5.063-2.858-5.228-1.199-.073-2.029.332-2.758.929l-.184 2.873 3.034.193-.102 1.583-4.878-.303.443-6.977 1.494.091-.092 1.427c.451-.617 1.669-1.556 3.578-1.435 3.531.202 4.518 3.562 4.297 6.985M99.126 226.888l-2.029-.424-1.844-13.639 2.028.423.388 3.23 4.961 1.032 1.641-2.808 1.983.415zm2.739-7.933-4.021-.838.258 2.052.461 4.584 2.25-4.022zM87.396 223.943l-3.163-1.15c-3.145-1.142-4.602-3.14-3.717-5.56.72-1.969 2.426-2.771 4.27-2.568l-2.029-6.222 2.25.82 1.752 5.78 1.623.588 1.65-4.537 1.8.653zm.442-6.812-1.383-.506c-2.296-.837-3.523-.23-4.03 1.161-.498 1.361.046 2.631 2.342 3.469l1.384.506zM64.932 206.943l-8.927 2.568-.22-9.269 8.926-2.568zM37.803 190.486l-2.315-3.01c-1.964-2.558-2.24-5.072-.027-6.765s4.555-.8 6.538 1.776l1.152 1.501 3.8-2.918 1.162 1.519zm4.048-5.504-1.162-1.519c-1.484-1.932-2.85-2.079-4.02-1.186-1.153.883-1.384 2.244.11 4.177l1.162 1.52zM28.978 178.199l-1.65-2.927c-1.642-2.909-1.44-5.366.81-6.636 1.826-1.031 3.652-.516 4.916.828l2.526-6.037 1.18 2.088-2.443 5.523.849 1.5 4.223-2.366.94 1.667zm4.786-4.878-.72-1.28c-1.198-2.127-2.526-2.466-3.808-1.74-1.263.709-1.687 2.034-.489 4.161l.72 1.279zM21.987 164.788l-3.061-7.868 1.521-.589 2.37 6.092 3.652-1.417-2.056-5.302 1.521-.588 2.057 5.301 3.891-1.51-2.37-6.093 1.522-.589 3.061 7.87zM26.156 149.133l-.424-1.813c1.439-.423 2.029-1.574 1.596-3.433-.397-1.703-1.328-2.669-2.61-2.375-.987.23-1.291.985-1.43 2.218l-.34 2.937c-.185 1.647-.858 3.147-2.703 3.57-2.25.516-3.891-1.159-4.463-3.644-.59-2.559.23-4.611 2.831-5.238l.415 1.795c-1.78.506-1.909 1.86-1.623 3.112.378 1.637 1.319 2.337 2.352 2.098.857-.193 1.254-.902 1.374-2.016l.34-2.936c.25-2.209.905-3.351 2.638-3.746 2.582-.598 4.187 1.234 4.795 3.856.692 2.863-.203 5.026-2.748 5.615M14.04 135.658l-.71-8.412 1.631-.139.554 6.517 3.91-.332-.48-5.669 1.632-.137.48 5.669 4.159-.351-.554-6.515 1.633-.139.71 8.422zM13.255 120.554l.184-3.35c.185-3.332 1.679-5.302 4.26-5.154 2.094.119 3.357 1.527 3.69 3.341l5.385-3.737-.139 2.393-5.035 3.341-.092 1.721 4.832.267-.11 1.905zm6.667-1.537.083-1.473c.139-2.439-.802-3.433-2.277-3.516-1.448-.082-2.518.801-2.656 3.24l-.083 1.473zM14.298 106.978l.405-2.007 7.35-.893 4.362-.441-3.827-2.035-6.483-3.672.396-1.96 11.85 7.022-.415 2.071zM19.092 87.87l.691-1.951 13.786.028-.691 1.95-3.255-.054-1.697 4.767 2.564 2.007-.683 1.905zm7.515 3.783 1.374-3.856-2.075-.028-4.61-.175 3.688 2.77zM26.516 74.672l-2.038 3.866-1.448-.764 4.99-9.47 1.447.763-2.056 3.912 10.06 5.283-.894 1.694zM40.293 70.19l1.863-2.577-7.885-5.688-1.863 2.577-1.327-.957 4.84-6.673 1.329.957-1.854 2.559 7.885 5.688 1.853-2.56 1.319.958-4.842 6.673zM39.316 52.656l1.429-1.472 6.676 3.203 3.92 1.978-2.122-3.773-3.476-6.58 1.392-1.437 6.179 12.297-1.476 1.528zM51.229 41.04l6.676-5.19 1.005 1.288-5.163 4.013 2.406 3.083 4.491-3.488 1.005 1.289-4.49 3.488 2.563 3.286 5.164-4.013 1.005 1.288-6.676 5.191zM67.45 40.534l1.622-.93c.821 1.252 2.094 1.483 3.763.535 1.521-.866 2.176-2.044 1.521-3.176-.507-.883-1.31-.948-2.536-.727l-2.914.525c-1.632.294-3.264.092-4.205-1.547-1.143-1.997-.009-4.05 2.214-5.32 2.277-1.306 4.49-1.104 5.837 1.197l-1.605.911c-.996-1.555-2.333-1.288-3.458-.653-1.457.837-1.863 1.942-1.337 2.862.433.755 1.227.94 2.333.736l2.914-.524c2.186-.396 3.477-.101 4.352 1.436 1.32 2.3.028 4.353-2.314 5.697-2.554 1.464-4.897 1.233-6.188-1.022M90.974 25.1l4.362-9.435 8.032 6.6-4.353 9.433z"/></g><path fill="#fff" d="m116.324 140.026 2.499-.294v-37.779c0-7.203 1.617-10.364 5.365-15.803v-.147h-12.936v.147c3.896 5.513 5.366 8.526 5.439 15.95l.147 18.081-27.195-34.178h-16.39v.147c3.454 3.97 4.998 6.468 5.365 11.613v26.093c0 7.35-1.543 10.363-5.439 15.802v.147h13.23v-.147c-3.969-5.439-5.586-8.599-5.586-15.802l-.294-28.518zm29.484.882c10.804 0 19.771-8.747 19.771-18.963s-8.967-19.11-19.771-19.11-19.772 8.893-19.772 19.11 8.967 18.963 19.772 18.963m0-1.397c-5.219 0-7.571-7.129-7.571-17.566s2.279-17.714 7.571-17.714c5.218 0 7.57 7.277 7.57 17.714s-2.352 17.566-7.57 17.566"/><defs><clipPath id="a"><path fill="#fff" d="M0 0h241v241H0z"/></clipPath></defs></svg>
